gama.ui.shared/icons_svg/dark/toolbar/view.home.svg

<svg height="24.75" viewBox="-696.562 -2878.317 24.75 24.75" width="24.75" xmlns="http://www.w3.org/2000/svg"><g fill="none"><path d="m-676.33584-2867.6173-7.56086-6.2247c-.16015-.1335-.4003-.1335-.5693 0l-7.5609 6.2247c-.1868.1601-.2135.4358-.0623.6225.1601.1868.4359.2134.6227.0623l.1601-.1335v6.9007c0 1.2273.99625 2.2233 2.2238 2.2233h2.6685c.2491 0 .4448-.1958.4448-.4447v-5.3356c0-.249.1957-.4447.44475-.4447h2.66855c.2491 0 .44476.1957.44476.4447v5.3356c0 .2489.19569.4447.44474.4447h2.6686c1.2275 0 2.22376-.996 2.22376-2.2233v-6.9007l.16014.1335c.1868.16.4714.1335.6226-.0623.16015-.1867.1335-.4712-.0622-.6225z" fill="#656666"/><path d="m-677.076-2867.061v6.897c0 1.2265-.9957 2.222-2.2225 2.222h-2.6671c-.2489 0-.4445-.1956-.4445-.4445v-5.3325c0-.249-.1956-.4445-.4445-.4445h-2.6671c-.2489 0-.4445.1955-.4445.4445v5.3325c0 .2489-.1956.4445-.4445.4445h-2.6671c-1.2268 0-2.2225-.9955-2.2225-2.222v-6.897l-.1601.1335c-.18666.1599-.47114.1333-.6223-.0622-.16-.1867-.1333-.4711.06226-.6223l7.54779-6.23c.16005-.1334.40005-.1334.56895 0l7.5567 6.2212c.1867.16.2134.4355.06225.6222-.16005.1866-.43565.2133-.62235.0622l-.16-.1333zm-.8801-.7286-6.23206-5.1282-6.23204 5.1282v.0711 7.5545c0 .7376.5956 1.333 1.3335 1.333h2.2226v-4.888c0-.7378.5956-1.3332 1.3335-1.3332h2.6671c.7379 0 1.3335.5954 1.3335 1.3332v4.888h2.2226c.7379 0 1.3335-.5954 1.3335-1.333v-7.5545s0-.0535 0-.0711z" fill="#8fed61"/></g></svg>

<?xml version="1.0" encoding="UTF-8" standalone="no"?>
<!DOCTYPE svg PUBLIC "-//W3C//DTD SVG 1.1//EN" "http://www.w3.org/Graphics/SVG/1.1/DTD/svg11.dtd">
<svg xmlns="http://www.w3.org/2000/svg" xmlns:dc="http://purl.org/dc/elements/1.1/" version="1.1" xmlns:xl="http://www.w3.org/1999/xlink" viewBox="-696.562 -2878.317 24.75 24.75" width="24.75" height="24.75">
  <defs/>
  <g id="SOURCES" stroke-dasharray="none" stroke-opacity="1" stroke="none" fill="none" fill-opacity="1">
    <title>SOURCES</title>
    <g id="SOURCES_Dark">
      <title>Dark</title>
      <g id="Graphic_12469">
        <path d="M -676.33584 -2867.6173 L -683.8967 -2873.842 C -684.05685 -2873.9755 -684.297 -2873.9755 -684.466 -2873.842 L -692.0269 -2867.6173 C -692.2137 -2867.4572 -692.2404 -2867.1815 -692.0892 -2866.9948 C -691.9291 -2866.808 -691.6533 -2866.7814 -691.4665 -2866.9325 L -691.3064 -2867.066 L -691.3064 -2860.1653 C -691.3064 -2858.938 -690.31015 -2857.942 -689.0826 -2857.942 L -686.4141 -2857.942 C -686.165 -2857.942 -685.9693 -2858.1378 -685.9693 -2858.3867 L -685.9693 -2863.7223 C -685.9693 -2863.9713 -685.7736 -2864.167 -685.52455 -2864.167 L -682.856 -2864.167 C -682.6069 -2864.167 -682.41124 -2863.9713 -682.41124 -2863.7223 L -682.41124 -2858.3867 C -682.41124 -2858.1378 -682.21555 -2857.942 -681.9665 -2857.942 L -679.2979 -2857.942 C -678.0704 -2857.942 -677.07414 -2858.938 -677.07414 -2860.1653 L -677.07414 -2867.066 L -676.914 -2866.9325 C -676.7272 -2866.7725 -676.4426 -2866.799 -676.2914 -2866.9948 C -676.13125 -2867.1815 -676.1579 -2867.466 -676.3536 -2867.6173 Z" fill="#656666"/>
      </g>
      <g id="Group_12467">
        <title>home</title>
        <g id="Graphic_12468">
          <path d="M -677.076 -2867.061 L -677.076 -2860.164 C -677.076 -2858.9375 -678.0717 -2857.942 -679.2985 -2857.942 L -681.9656 -2857.942 C -682.2145 -2857.942 -682.4101 -2858.1376 -682.4101 -2858.3865 L -682.4101 -2863.719 C -682.4101 -2863.968 -682.6057 -2864.1635 -682.8546 -2864.1635 L -685.5217 -2864.1635 C -685.7706 -2864.1635 -685.9662 -2863.968 -685.9662 -2863.719 L -685.9662 -2858.3865 C -685.9662 -2858.1376 -686.1618 -2857.942 -686.4107 -2857.942 L -689.0778 -2857.942 C -690.3046 -2857.942 -691.3003 -2858.9375 -691.3003 -2860.164 L -691.3003 -2867.061 L -691.4604 -2866.9275 C -691.64706 -2866.7676 -691.93154 -2866.7942 -692.0827 -2866.9897 C -692.2427 -2867.1764 -692.216 -2867.4608 -692.02044 -2867.612 L -684.47265 -2873.842 C -684.3126 -2873.9754 -684.0726 -2873.9754 -683.9037 -2873.842 L -676.347 -2867.6208 C -676.1603 -2867.4608 -676.1336 -2867.1853 -676.28475 -2866.9986 C -676.4448 -2866.812 -676.7204 -2866.7853 -676.9071 -2866.9364 L -677.0671 -2867.0697 Z M -677.9561 -2867.7896 L -684.18816 -2872.9178 L -690.4202 -2867.7896 C -690.4202 -2867.7896 -690.4202 -2867.7452 -690.4202 -2867.7185 L -690.4202 -2860.164 C -690.4202 -2859.4264 -689.8246 -2858.831 -689.0867 -2858.831 L -686.8641 -2858.831 L -686.8641 -2863.719 C -686.8641 -2864.4568 -686.2685 -2865.0522 -685.5306 -2865.0522 L -682.8635 -2865.0522 C -682.1256 -2865.0522 -681.53 -2864.4568 -681.53 -2863.719 L -681.53 -2858.831 L -679.3074 -2858.831 C -678.5695 -2858.831 -677.9739 -2859.4264 -677.9739 -2860.164 L -677.9739 -2867.7185 C -677.9739 -2867.7185 -677.9739 -2867.772 -677.9739 -2867.7896 Z" fill="#8fed61"/>
        </g>
      </g>
      <g id="Graphic_12472"/>
    </g>
  </g>
</svg>
